X:1
T:Menuet sur le Nom d'Haydn
T:Menuet sur le Nom d'Haydn
T:Studio KonKon © 2020 | IMSLP#11958 Digital Re-scoring of Public Domain Music free to reuse, edit and modify without permission
T:Studio KonKon © 2020 | IMSLP#11958 Digital Re-scoring of Public Domain Music free to reuse, edit and modify without permission
C:Maurice Ravel, Claude Debussy, Vincent d'Indy, Paul Dukas, Reynaldo Hahn, Charles-Marie Widor
Z:Studio KonKon © 2020 | IMSLP#11958
Z:Digital Re-scoring of Public Domain Music
Z:free to reuse, edit and modify without permission
%%score { ( 1 3 7 ) | ( 2 4 5 6 ) } ( 8 9 )
L:1/8
Q:1/4=88
M:3/4
K:G
V:1 treble nm="P1"
V:3 treble 
V:7 treble 
V:2 bass 
V:4 bass 
V:5 bass 
V:6 bass 
V:8 bass nm="Piano"
V:9 bass 
V:1
"^H"!p!"^Mouvt de menuet" (!>!B2- | B2"^A" A2)"^Y" d2 |"^D" (!>!d2"^N" g2) (!>![Bd]2- | %3
!>(! [Bd]2 [Ac][GB][EG][FA])!>)! | ([FA]2 [GB]2)!f! de |({de)} (!>![df^c']2 [^ceb]2) (de) | %6
({de)} ((!>![df^c']2 [^ceb]2)) ((de)) |({de)} ([Gdf]2"_m.g."!>(! efd^c) | (^c2 d2)!>)!!p! (!>!B2- | %9
 B2 A2) d2 | (!>!d2 g2) ([Bd]2- |!>(!!>(! [Bd]2 [Ac][GB][EG][FA])!>)!!>)! | ([FA]2 [GB]2)!mf! de | %13
({de)} (!>![df^c']2 [^ceb]2) (de) |({de)} ((!>![df^c']2 [^ceb]2)) ((de)) | %15
({de)} ([Gdf]2"_m.g."!>(! efd^c) | (^c2 d2)!>)!!p! (=CD |{CD} E4)!<(! (FG | %18
{FG} [FA]4) ([GB]!<)![A^c] |!mf!{B^c} d3 ecB | d3 e^cB | d3 e^cB | A!>(!B F4) | (AB F4)!>)! | %24
!pp! (AB F2)!<(! (GA |{GA} [GB]4) (^cd |{^cd} e4) (fg!<)! |!f!{fg} ^g3 x3 | ^g3 ^a^e^d) | %29
!mf!!>(! ([B=d=g]3 =afe | [GBdg]3 af!>)!e |!p!!>(! ^c3 [^A^d]^E^D | [^G^c]3 [^A^d]^E^D!>)! | %33
!pp! =G3 =AFE- | G3 =AFE- | G3 =AFE- | G=A!>(!FE[K:bass] ^DE |=DC G,=A,!>)!D,C,) | %38
[K:treble] z2 z2!pp! (!>![=df=a=d']2- | [dfad']2 [cegc']2) [GB=eg]2- | %40
 [GBeg]2 [FA^df]2 (!>![=ce^g=c']2- | [cegc']2 [B^d^eb]2) (!>![=EB=e]2- | %42
 [EBe]2 [Dd]2)"^H" (!>![fb]2- | [fb]2"^A" [ga]2)"^Y" =d2 |"^D" (!>!d2"^N" g2) (!>![Bd]2- | %45
 [Bd]2 [Ac][GB][EG][FA] | [FA]2 [GB]2) =fg |({=fg)} (!>![eae']2 [dgd']2) (fg) | %48
{=fg} (!>![eae']2 [dgd']2) (c'2 |[Q:1/4=76]"^Retenu"{cd} e4) x2 | e4 x2 | %51
!p![Q:1/4=60]"^Lent" (=c2 _Bc _E2) | %52
"_H" [C=E]4"_Y"[Q:1/4=60]"^rall. -     -     -     -     -" ([DF]2 |"_D" F4 G2- | %54
 !fermata![B,DG]4) z2 |] %55
V:2
 z2 | (A,2 B,2) z2 | (!>!F2 E2) z2 | ([C,G,]4 [D,C]2 | [G,,D,]4) [B,,F,]2- | [B,,F,]4 [B,,F,]2- | %6
 [B,,F,]4 [B,,F,]2 | [A,,E,B,]6 | (A,,2 D,,2) z2 | (A,2 B,2) z2 | (!>!F2 E2) z2 | [C,G,]4 [D,C]2 | %12
 [G,,D,]4 [B,,F,]2- | [B,,F,]4 [B,,F,]2- | [B,,F,]4 [B,,F,]2 | [A,,E,B,]6 | (A,,2 D,,2)"_H" x2 | %17
 x6 |"_D" x6 |"^N" x6 |"^A" x6 | x6 | x6 | x6 | E,,6 |"^N" =D2"^D" G2"^Y" G2 |"^A" ^c2"^H" B4 | %27
[I:staff -1] (^g2[I:staff +1] ^d2 d2 | ^A2 B4) | x6 | x6 | x6 | x6 | x6 | x6 | x6 | x6 | x6 | x6 | %39
 x6 | x6 | x6[K:treble] | x6 | x6 |[K:bass] (B,,,6 | A,,,4 D,,2 | G,,,2) z2 [G,,D,]2- | %47
 [G,,D,]4 [G,,D,]2- | [G,,D,]4 [C,G,E]2 | ([E,D]4 [A,,=G,]2) | ([E,D]4 [A,,=G,]2) | x6 | x6 | x6 | %54
 !fermata!G,,,4 z2 |] %55
V:3
 x2 | [CEG]2 [DF]2 z2 | [GB]4 z2 | E4 x2 | B,4 x2 | (!>![DF^c]2 [^CEB]2) x2 | %6
 ((!>![DF^c]2 [^CEB]2)) x2 | x2 [EGB]4 | [DFA]4 [=CEG]2- | [CEG]2 [DF]2 z2 | [GB]4 x2 | E4 x2 | %12
 B,4 x2 | (!>![DF^c]2 [^CEB]2) x2 | ((!>![DF^c]2 [^CEB]2)) x2 | x2 !>![EGB]4 | [DFA]4 x2 | C6 | %18
 B,6 | [FB]4 [EA]2 | [FB]4 [EA]2 | [F-B]4 F2 | ^C2 [B,D]2 [A,C]2 | [^CE]2 [B,^D]2 [A,C]2 | %24
 [^CE]4 ^D2 | x6 | d6 | x3 ^a^e^d- | d6 | (=G2[I:staff +1] D2 D2 | A,2 B,4) | %31
[I:staff -1] ((^G2[I:staff +1] ^D2 D2 | ^A,2 B,4)) |[I:staff -1] [^A,E]6 | [^A,E]6 | [^A,E]6 | %36
 E2 C2[K:bass] ^A,2 | G,2 E,2 E,2 |[K:treble] x6 | x6 | x6 | x6 | x2 A2 B2 | x4 [F=c]2 | %44
 [AB-]2 [GB]2 F2 | E4 C2 | B,4 x2 | (!>![B,=FA]2 [DGB]2) x2 | (!>![B,=FA]2 [DGB]2) cd | %49
 [^Gc]2 [FB]c[CE]=G | [^Gc]2 [FB]c[CE]=G | [_D=F]4 C2 | (B,2"_A" A,2[I:staff +1] D,2 | %53
 D,2"_N" G,,4) | x6 |] %55
V:4
 x2 | x6 | [E,B,]4 x2 | x6 | x6 | x6 | x6 | x6 | x6 | x6 | [E,B,]4 x2 | x6 | x6 | x6 | x6 | x6 | %16
 x6 | x6 | x6 | G2"^D" D2"^Y" D2 | A,2"^H" B,4- | B,2 ^C2 D2 | E2 x4 | x6 | z2 B,,2 (B,2 | %25
 [B,D]6) | [DG]6 | [^C-^E-B]6 | [CE]6 | ^C,6- | C,6 | [^C,-B,]6 | C,6 | =C2 G,2 G,2 | D,2 E,4- | %35
 E,2 G,2 ^A,2 | =C2 ^A,2 G,2 | E,2 ^A,,2 F,,2 | z2 z2 !>![^D,=A,]2- | [D,A,]2 =C2 ^C2 | %40
 D2 [F,=C]2 ^D2 | E2 ^E2[K:treble] [B,-^E-=G]2 | [B,E^G]2 [CF]2 [^DA]2- | [DA]2 [EA]2 z2 | %44
[K:bass] x6 | x6 | x6 | x6 | x6 | x6 | x6 | x2 !tenuto!G,4 | =D,,6 | x6 | x6 |] %55
V:5
 x2 | x6 | x6 | x6 | x6 | x6 | x6 | x6 | x6 | x6 | x6 | x6 | x6 | x6 | x6 | x6 | x4 (B,2- | %17
 B,2"_A" A,2"_Y" D,2 | D,2"_N" G,,4-) | G,,6- | G,,6 | x6 | x6 | x6 | x6 | x6 | x6 | x6 | x6 | x6 | %30
 x6 | x6 | x6 | x6 | x6 | x6 | x6 | x6 | x6 | x6 | x6 | x4[K:treble] x2 | x6 | x6 |[K:bass] x6 | %45
 x6 | x6 | x6 | x6 | x6 | x6 | x6 | x6 | x6 | x6 |] %55
V:6
 x2 | x6 | x6 | x6 | x6 | x6 | x6 | x6 | x6 | x6 | x6 | x6 | x6 | x6 | x6 | x6 | x6 | x6 | D,6- | %19
 D,6- | D,6 | G,6- | G,4 F,2- | F,2 B,,4 | x6 | x6 | x6 | x6 | x6 | x6 | x6 | x6 | x6 | F,,6- | %34
 F,,6 | F,,6- | F,,6- | F,,6 | x4 (^A,2 | B,2 [E,^A,]2 [^E,B,]2- | [E,B,]2 ^D2 [^G,=D]2- | %41
 [G,D]2 [=A,^D]2[K:treble] x2 | x6 |[I:staff -1] ^B2 ^c2) x2 |[I:staff +1][K:bass] x6 | x6 | x6 | %47
 x6 | x6 | x6 | x6 | (_E,,4 _A,,2) | x6 | x6 | x6 |] %55
V:7
 x2 | x6 | x6 | x6 | x6 | x6 | x6 | x6 | x6 | x6 | x6 | x6 | x6 | x6 | x6 | x6 | x6 | x6 | x6 | %19
 x6 | x6 | x6 | x6 | x6 | x6 | x6 | x6 | x6 | x6 | x6 | x6 | x6 | x6 | x6 | x6 | x6 | %36
 x4[K:bass] x2 | x6 |[K:treble] x6 | x6 | x6 | x6 | x6 | x6 | x6 | x6 | x6 | x6 | x6 | x6 | x6 | %51
 x6 | x6 | [B,D]6- | x6 |] %55
V:8
 z2 | z6 | z6 | z6 | z6 | z6 | z6 | z6 | z6 | z6 | z6 | z6 | z6 | z6 | z6 | z6 | z6 | z6 | z6 | %19
 z6 | z6 | z6 | z6 | z6 | z6 | z6 | z6 | z6 | z6 | z6 | z6 | z6 | z6 | z6 | z6 | z6 | z6 | z6 | %38
!pp!!<(! z2 D,4 | x6 | x6 | x6!<)! | x6 |!>(! x6!>)! | z6 | z6 | z6 | z6 | z6 | z6 | z6 | z6 | z6 | %53
 z6 | z6 |] %55
V:9
 x2 | x6 | x6 | x6 | x6 | x6 | x6 | x6 | x6 | x6 | x6 | x6 | x6 | x6 | x6 | x6 | x6 | x6 | x6 | %19
 x6 | x6 | x6 | x6 | x6 | x6 | x6 | x6 | x6 | x6 | x6 | x6 | x6 | x6 | x6 | x6 | x6 | x6 | x6 | %38
 B,,,6- | B,,,6- | B,,,3 B,,,3- | B,,,6- | B,,,3 B,,,3- | B,,,6 | x6 | x6 | x6 | x6 | x6 | x6 | %50
 x6 | x6 | x6 | x6 | x6 |] %55

